X:1
T:Sancta Maria succurre miseris
T:Luca Marenzio
T:Sancta Maria succurre miseris
T:Copyright © 2014 by CPDL.  This edition can be fully distributed, duplicated, performed, and recorded 
T:Copyright © 2014 by CPDL.  This edition can be fully distributed, duplicated, performed, and recorded 
T:Copyright © 2014 by CPDL.  This edition can be fully distributed, duplicated, performed, and recorded 
T:Copyright © 2014 by CPDL.  This edition can be fully distributed, duplicated, performed, and recorded 
T:Copyright © 2014 by CPDL.  This edition can be fully distributed, duplicated, performed, and recorded 
T:Copyright © 2014 by CPDL.  This edition can be fully distributed, duplicated, performed, and recorded 
T:Copyright © 2014 by CPDL.  This edition can be fully distributed, duplicated, performed, and recorded 
T:Copyright © 2014 by CPDL.  This edition can be fully distributed, duplicated, performed, and recorded 
T:Copyright © 2014 by CPDL.  This edition can be fully distributed, duplicated, performed, and recorded 
C:Luca Marenzio
Z:Copyright © 2014 by CPDL.  This edition can be fully distributed, duplicated, performed, and recorded
%%score [ 1 2 3 4 ]
L:1/8
Q:1/2=88
M:4/2
K:D
V:1 treble nm="SOPRANO" snm="S."
V:2 treble nm="ALTO" snm="A."
V:3 treble-8 transpose=-12 nm="TENOR" snm="T."
V:4 bass nm="BASS" snm="B."
V:1
"^Holy Mary, refuge of the poor,strength for the faint-hearted,comfort for the sorrowful;pray for the people. plead for the clergy,intercede for holy women;let all who celebrate your feast day feel the might of your assistance." z16 | %1
w: |
 A8 A4 A4 | B8 G8 | z4 B4 d4 c4 | F6 E2 D8 | z4 B4 =c8 | B8 A2 G2 G4- | G4 F4 G8- | G8 z8 | %9
w: San- cta Ma-|ri- a|suc- cur- re|mi- se- ris,|suc- cur-|re mi- * *|* se- ris,|_|
 d8 d4 d4 | e8 =c8 | z4 B8 d4- | d4 ^c4 B6 B2 | A4 F8 G4- | G4 F4 E8- | E4 E4 D4 d4 | d4 d4 e8 | %17
w: San- cta Ma-|ri- a|suc- cur-|* re mi- se-|ris, suc- cur-|* re mi-|* se- ris, San-|cta Ma- ri-|
 =c8 z8 | z16 | B8 =c8- | c4 B4 A6 A2 | G4 G8 E4 | G4 A4 B6 B2 | E2 F2 G2 A2 B4 A2 G2 | %24
w: a,||suc- cur-|* re mi- se-|ris, ju- va|pus- sil- la- ni-|mes, _ _ _ _ _ _|
 F2 E2 D6 C2 C2 B,C | D8 d6 d2 | B4 G8 G4 | F16- | F16 | B8 B4 B4 | ^A6 A2 (B6 =AG | F8) z8 | %32
w: _ _ _ _ _ _ _|* re- fo-|ve de- bi-|les,|_|o- ra pro|po- pu- lo, _ _|_|
 z8 z4 B4- | B4 B4 B8- | B8 A8 | G12 E4 | E16 | E8 ^D4 D4- | D2 ^D2 E4 F8 | F8 z8 | z16 | z16 | %42
w: in-|* ter- ce-|* de|pro de-|vo-|to fe- mi-|* ne- o se-|xu,|||
 G6 G2 A4 B4- | B2 B2 B4 A4 G4 | F8 E8 | =D6 D2 E4 F4- | F2 F2 F4 E4 D4 | =C8 B,4 B4- | B4 A8 ^G4 | %49
w: sen- ti- ant o-|* mnes tu- um ju-|va- men,|sen- ti- ant o-|* mnes tu- um ju-|van- men, ju-|* va- men,|
 z4 A4 B8 | c8 d6 d2 | c8 F4 D4 | E8 F8 | D4 d6 c2 c4- | c2 B2 B6 ^A2 A2 ^GA | B6 AG F6 ^G2 | %56
w: qui- cum-|que ce- le-|brant tu- am|san- ctam|fes- ti- vi- ta-|||
 A2 E2 A6 =G2 F4- | F2 E2 E8 ^D4 | E4 B4 c8 | d8 B6 B2 | A4 A8 A4- | A4 G4 F4 F4- | F4 G8 F4 | %63
w: ||tem,, qui- cum-|que ce- le-|brant tu- am|_ san- ctam fes-|* ti- vi-|
 (G6 F2 E8) | D8 z4 A4 | F4 B4 G4 A4- | A4 G8 F2 E2 | F4 ^G4 A2 E2 A4- | A2 =G2 F6 E2 E4- | %69
w: ta- * *|tem, tu-|am fes- ti- vi-|* ta- * *|||
 E4 ^D2 C2 D8 | E16 |] %71
w: |tem.|
V:2
 E8 E4 E4 | F8 D8 | z4 B,4 =C4 B,4 | G6 G2 F8 | z4 F,4 G,4 F,4 | (E,2 F,2 G,8) F,4 | G,4 D4 E4 D4 | %7
w: San- cta Ma-|ri- a|suc- cur- re|mi- se- ris,|suc- cur- re|mi- * * se-|ris, suc- cur- re|
 =C6 C2 B,8 | z4 E4 E4 E4 | F8 D8 | G,8 =C8 | B,4 G,8 F,4 | ^G,4 A,8 G,4 | A,8 D8 | %14
w: mi- se- ris,|San- cta Ma-|ri- a,|suc- cur-|re, suc- cur-|re mi- se-|ris, San-|
 D4 (D8 C2 B,2) | C8 D4 F4 | G6 (F2 E2 F2) G4- | G4 F4 G8- | G8 z4 E4 | G4 F4 A6 GF | %20
w: cta Ma- * *|ri- a, suc-|cur- re _ _ mi-|* se- ris,|_ suc-|cur- re mi- * *|
 E2 F2 G6 FE F4 | D8 E8- | E8 z4 B,4- | B,4 B,4 B,4 ^C4 | D6 D2 E8 | z4 F6 F2 D4- | D4 E6 E2 C4- | %27
w: |se- ris,|_ ju-|* va pus- sil-|la- ni- mes,|re- fo- ve,|_ re- fo- ve|
 C4 D8 D4 | C16 | z16 | z8 z4 D4- | D2 C2 D4 B,4 C4 | ^D8 E8 | z4 =D8 B,4 | G8 F8 | %35
w: _ de- bi-|les,||in-|* ter- ve- ni pro|cle- ro,|in- ter-|ce- de|
 (E6 DC B,4) =C4 | =C16 | =C8 B,4 B,4- | B,2 B,2 B,4 D8 | D4 D6 D2 E4 | F8 F8 | z16 | %42
w: pro _ _ _ de-|vo-|to fe- mi-|* ne- o se-|xu, sen- ti- ant|o- mnes||
 E6 E2 F4 G4- | G2 G2 G4 F4 E4- | E4 ^D4 (E2 F2 G2 E2 | F8) z8 | D8 E8- | E4 F4 G6 G2 | F8 E8 | %49
w: sen- ti- ant o-|* mnes tu- um ju-|* va- men _ _ _|_|qui- cum-|* que ce- le-|brant tu-|
 C4 D8 E4 | A,4 C8 B,4- | B,4 ^A,4 B,8 | z8 A,8 | B,8 C8 | D4 D4 C8 | z8 D8 | E8 F8 | G4 G4 F8 | %58
w: am san- ctam|fes- ti- vi-|* ta- tem,|qui-|cum- que|ce- le- brant,|qui-|cum- que|ce- le- brant,|
 G6 F2 E8 | z4 D6 D2 E4 | F6 F2 F8 | E4 D4 C8 | D4 D4 A,8 | B,4 D8 C4 | D4 G4 E4 F4 | D8 E8 | D16 | %67
w: _ _ _|sen- ti- ant|o- mnes tu-|um ju- van-|men qui- cum-|que ce- le-|brant tu- am san-|ctam fes-|ti-|
 D8 E6 C2 | F2 E2 D2 C2 B,8- | B,16 | B,16 |] %71
w: vi- ta- *|||tem.|
V:3
 z16 | z16 | z16 | z8 A8 | A4 A4 B8 | G8 z8 | z4 B4 =c4 B4 | A6 A2 G4 B4- | B4 B4 B4 ^c4 | %9
w: |||San-|cta Ma- ri-|a|suc- cur- re|mi- se- ris, ju-|* va pus- sil-|
 d2 c2 B2 A2 B2 A2 G2 F2 | E2 F2 G8 F4 | G2 A2 B2 c2 d2 e2 f2 d2 | e8 z4 B4 | d4 c4 B6 B2 | A16 | %15
w: la- * * * * * * *|* * * ni-|mes, _ _ _ _ _ _ _|_ suc-|cur- re mi- se-|ris,|
 z16 | B8 =c4 B4 | A6 A2 G4 B4- | B4 B4 B4 ^c4 | d6 d2 e8 | z8 d6 d2 | B12 =c4- | c4 =c4 B4 G4- | %23
w: |suc- cur- re|mi- se- ris, ju-|* va pus- sil-|la- ni- mes,|re- fo-|ve de-|* bi- les, ju-|
 G4 E4 G4 A4 | B6 B2 A8 | z4 d6 d2 B4 | z4 B6 B2 e4 | A8 A4 B4- | (B4 ^A2 ^G2 A8) | z4 B4 d4 e4 | %30
w: * va pus- sil-|la- ni- mes,|re- fo- ve,|re- fo- ve|de- bi- les,|_ _ _ _|o- ra pro|
 c6 c2 B8 | z16 | z16 | B12 d4 | d8 d8 | (B6 A2 G4) G4 | G16 | A8 F4 F4- | F2 F2 G4 A8 | A8 B6 B2 | %40
w: po- pu- lo,|||in- ter-|ce- de|pro _ _ de-|vo-|to fe- mi-|* ne- o se-|xu, sen- ti-|
 c4 d6 d2 d4 | c4 B4 A8 | B8 z8 | G8 A8 | B8 =c6 c2 | B8 A8- | A4 F4 G8 | A4 A4 D6 E2 | F8 B8 | %49
w: ant o- mnes tu-|um ju- va-|men|qui- cum-|que ce- le-|brant tu-|* am san-|ctam fes- ti- vi-|ta- tem,|
 z16 | z4 A8 B4 | c8 d6 d2 | c8 c4 d4- | d4 B4 e6 e2 | f16 | d12 B4 | c8 d4 d4 | G6 A2 B8 | E8 z8 | %59
w: |qui- cum-|que ce- le-|brant, qui- cum-|* que ce- le-|brant|tu- am|san- ctam fes-|ti- vi- ta-|tem,|
 z8 B6 B2 | c4 d6 d2 d4 | c4 B4 ^A8 | B8 z8 | z4 G4 A8 | B8 =c6 c2 | B4 G8 E4 | (B12 A2 G2 | %67
w: sen- ti-|ant o- mnes tu-|um ju- van-|men|qui- cum-|que ce- le-|brant tu- am|san- * *|
 A4) B4 E8 | A8 G8 | F16 | E16 |] %71
w: * ctam fes-|ti- vi-|ta-|tem.|
V:4
 z16 | z16 | z8 E,8 | E,4 E,4 F,8 | D,8 z4 B,,4 | =C,4 B,,4 A,,6 A,,2 | G,,8 z8 | z8 z4 G,4- | %8
w: ||San-|cta Ma- ri-|a suc-|cur- re mi- se-|ris,|ju-|
 G,4 E,4 G,4 A,4 | D,6 D,2 G,,4 B,,4 | =C,4 B,,4 A,,6 A,,2 | G,,8 z8 | E,8 E,4 E,4 | F,8 D,8- | %14
w: * va pus- sil-|la- ni- mes, suc-|cur- re mi- se-|ris,|San- cta Ma-|ri- a,|
 D,8 z4 A,4 | A,4 A,4 B,8 | G,8 z8 | z8 z4 G,4- | G,4 E,4 G,4 A,4 | B,6 B,2 A,8 | z16 | %21
w: _ San-|cta Ma- ri-|a|ju-|* va pus- sil-|la- ni- mes,||
 G,6 G,2 E,8 | =C,4 A,,4 E,8- | E,8 z8 | z16 | D,6 D,2 B,,8 | G,6 G,2 E,8 | (F,6 E,2 D,4) B,,4 | %28
w: re- fo- ve|de- bi- les,|_||re- fo- ve,|re- fo- ve|de- * * bi-|
 F,16 | z16 | z8 z4 B,4- | B,2 A,2 F,4 G,4 A,4 | F,8 E,8 | G,12 G,4 | G,8 D,8 | E,12 =C,4 | =C,16 | %37
w: les,||in-|* ter- ve- ni pro|cle- ro,|in- ter-|ce- de|pro de-|vo-|
 A,,8 B,,4 B,,4- | B,,2 B,,2 E,4 D,8 | D,8 G,6 G,2 | A,4 B,6 B,2 B,4 | A,4 G,4 F,8 | E,8 z8 | z16 | %44
w: to fe- mi-|* ne- o se-|xu, sen- ti-|ant o- mnes tu-|um ju- va-|men||
 z16 | B,,6 B,,2 C,4 D,4- | D,2 D,2 D,4 =C,4 B,,4 | A,,8 G,,8 | D,8 E,8 | F,8 G,6 G,2 | F,16- | %51
w: |sen- ti- ant o-|* mnes tu- um ju-|van- men|qui- cum-|que ce- le-|brant|
 F,8 z8 | z4 A,8 F,4 | G,8 A,4 A,4 | D,6 E,2 F,8 | B,16 | z16 | z16 | G,8 A,8 | B,8 G,6 G,2 | %60
w: _|tu- am|san- ctam fes-|ti- vi- ta-|tem,|||qui- cum-|que ce- le-|
 F,4 F,4 D,8 | E,8 F,4 F,4 | B,,6 C,2 D,8 | G,,8 z8 | G,,8 A,,8 | B,,8 =C,6 C,2 | B,,8 D,8- | %67
w: brant tu- am|san- ctam fes-|ti- vi- ta-|tem,|qui- cum-|que ce- le-|brant tu-|
 D,4 B,,4 ^C,8 | D,4 D,4 G,,6 A,,2 | B,,16 | E,16 |] %71
w: * am san-|ctam fes- ti- vi-|ta-|tem.|

